img/svg/paste_24px.svg

<svg width="35" height="35" viewBox="0 0 35 35" fill="none" xmlns="http://www.w3.org/2000/svg">
<path fill-rule="evenodd" clip-rule="evenodd" d="M27.7083 4.37504H21.6125C21 2.68337 19.3958 1.45837 17.5 1.45837C15.6042 1.45837 14 2.68337 13.3875 4.37504H7.29167C5.6875 4.37504 4.375 5.68754 4.375 7.29171V30.625C4.375 32.2292 5.6875 33.5417 7.29167 33.5417H27.7083C29.3125 33.5417 30.625 32.2292 30.625 30.625V7.29171C30.625 5.68754 29.3125 4.37504 27.7083 4.37504ZM17.5 4.37504C18.3021 4.37504 18.9583 5.03129 18.9583 5.83337C18.9583 6.63546 18.3021 7.29171 17.5 7.29171C16.6979 7.29171 16.0417 6.63546 16.0417 5.83337C16.0417 5.03129 16.6979 4.37504 17.5 4.37504ZM7.29167 7.29171V30.625H27.7083V7.29171H24.7917V11.6667H10.2083V7.29171H7.29167Z" fill="#006AFF"/>
</svg>

<svg width="35" height="35" viewBox="0 0 35 35" fill="none" xmlns="http://www.w3.org/2000/svg"><path fill-rule="evenodd" clip-rule="evenodd" d="M27.708 4.375h-6.095C21 2.683 19.396 1.458 17.5 1.458c-1.896 0-3.5 1.225-4.113 2.917H7.292a2.925 2.925 0 00-2.917 2.917v23.333a2.925 2.925 0 002.917 2.917h20.416a2.925 2.925 0 002.917-2.917V7.292a2.925 2.925 0 00-2.917-2.917zm-10.208 0c.802 0 1.458.656 1.458 1.458 0 .802-.656 1.459-1.458 1.459a1.463 1.463 0 01-1.458-1.459c0-.802.656-1.458 1.458-1.458zM7.292 7.292v23.333h20.416V7.292h-2.916v4.375H10.208V7.292H7.292z" fill="#006AFF"/></svg>
